src/assets/images/companies/microsoft.svg

<?xml version="1.0" encoding="UTF-8"?>
<svg width="103px" height="135px" viewBox="0 0 103 135" version="1.1" xmlns="http://www.w3.org/2000/svg" xmlns:xlink="http://www.w3.org/1999/xlink">
    <title>microsoft</title>
    <g id="Companies" stroke="none" stroke-width="1" fill="none" fill-rule="evenodd">
        <g id="Artboard" transform="translate(-74.000000, -58.000000)" fill="#F4F4F4" fill-rule="nonzero">
            <g id="microsoft" transform="translate(74.000000, 58.000000)">
                <path d="M103,124.06123 L103,121.539907 L99.8613128,121.539907 L99.8613128,117.620207 L99.7556565,117.652659 L96.8077066,118.552458 L96.7495957,118.570071 L96.7495957,121.540046 L92.0966868,121.540046 L92.0966868,119.885514 C92.0966868,119.11511 92.2693514,118.525553 92.609676,118.132376 C92.9476371,117.743915 93.4310147,117.546425 94.0475748,117.546425 C94.4907752,117.546425 94.949685,117.650579 95.4115142,117.855974 L95.5273191,117.907565 L95.5273191,115.252271 L95.4728227,115.2323 C95.0419952,115.077803 94.4560198,115 93.7296327,115 C92.8141765,115 91.9824112,115.198738 91.2569973,115.592608 C90.5311663,115.987033 89.9602052,116.550101 89.5602405,117.266001 C89.161666,117.981069 88.9593898,118.806948 88.9593898,119.720893 L88.9593898,121.539907 L86.7739726,121.539907 L86.7739726,124.06123 L88.9593898,124.06123 L88.9593898,134.683101 L92.0966868,134.683101 L92.0966868,124.06123 L96.7495957,124.06123 L96.7495957,130.811247 C96.7495957,133.591221 98.0640435,135 100.656376,135 C101.082338,135 101.530682,134.950211 101.98848,134.852715 C102.45448,134.752583 102.771866,134.65259 102.958711,134.545801 L103,134.521392 L103,131.97677 L102.872378,132.060953 C102.702077,132.174121 102.490069,132.266625 102.241499,132.335414 C101.991816,132.40545 101.783284,132.440538 101.621741,132.440538 C101.014496,132.440538 100.565178,132.277304 100.28644,131.955135 C100.004505,131.630053 99.8614518,131.061577 99.8614518,130.266348 L99.8614518,124.06123 L103,124.06123 Z M80.4940465,132.857143 C79.3652187,132.857143 78.4752212,132.484245 77.8480334,131.749708 C77.2169869,131.011464 76.8972603,129.958948 76.8972603,128.621679 C76.8972603,127.241985 77.2169869,126.162147 77.848309,125.41086 C78.4759103,124.664516 79.3573634,124.285714 80.4686888,124.285714 C81.547077,124.285714 82.4055153,124.647491 83.0204377,125.361571 C83.638392,126.079357 83.9520548,127.150546 83.9520548,128.546303 C83.9520548,129.959223 83.6571346,131.044553 83.075563,131.770577 C82.4979879,132.49111 81.6294893,132.857143 80.4940465,132.857143 M80.2794801,121.428571 C78.1292803,121.428571 76.4214489,122.054167 75.2037316,123.288008 C73.9868398,124.521985 73.369863,126.229634 73.369863,128.363956 C73.369863,130.391166 73.9721171,132.021759 75.1601139,133.209694 C76.3481107,134.39804 77.964854,135 79.9650752,135 C82.0493669,135 83.7232123,134.36566 84.9403792,133.114742 C86.1574086,131.865189 86.7739726,130.173662 86.7739726,128.089208 C86.7739726,126.030302 86.1953849,124.387549 85.0537577,123.207537 C83.9115801,122.026979 82.3050188,121.428571 80.2794801,121.428571 M68.3775133,121.428571 C66.9482913,121.428571 65.7660572,121.800034 64.8629449,122.532439 C63.9543201,123.269217 63.4934196,124.235511 63.4934196,125.404819 C63.4934196,126.012629 63.5929139,126.552541 63.7886756,127.010482 C63.9856474,127.469926 64.2904495,127.87445 64.6954181,128.213944 C65.0972943,128.550706 65.7176546,128.903452 66.5396925,129.262346 C67.2307744,129.551291 67.7461279,129.7957 68.0735179,129.98833 C68.393513,130.177135 68.620602,130.366897 68.748869,130.55174 C68.8735057,130.732621 68.936698,130.980172 68.936698,131.285648 C68.936698,132.155491 68.2956322,132.578731 66.9765262,132.578731 C66.4872563,132.578731 65.9291472,132.474902 65.3177952,132.270249 C64.7107861,132.068691 64.1378751,131.77352 63.619132,131.395079 L63.4931507,131.303272 L63.4931507,134.271556 L63.5394021,134.293415 C63.9687065,134.494789 64.5100091,134.664604 65.1479826,134.798216 C65.784746,134.931965 66.3632918,135 66.8658724,135 C68.4167732,135 69.6656953,134.626761 70.5770092,133.889984 C71.4941045,133.148152 71.9589041,132.159043 71.9589041,130.949296 C71.9589041,130.076585 71.7086894,129.328195 71.2155205,128.72462 C70.7257128,128.125963 69.8755745,127.576351 68.6898447,127.09054 C67.7451868,126.705279 67.1400195,126.385458 66.8903426,126.139957 C66.649674,125.902789 66.5274574,125.567393 66.5274574,125.14265 C66.5274574,124.766133 66.6783123,124.464482 66.9879546,124.22021 C67.3000171,123.974709 67.7344306,123.84984 68.2792291,123.84984 C68.7847676,123.84984 69.3020034,123.930991 69.8164157,124.090014 C70.3304247,124.249036 70.7819136,124.462023 71.1587818,124.722552 L71.2827463,124.808621 L71.2827463,121.992938 L71.2351504,121.972172 C70.8874582,121.820663 70.4289778,121.691013 69.8720787,121.585818 C69.3177342,121.481306 68.8148848,121.428571 68.3775133,121.428571 M55.0964457,132.857143 C53.9678274,132.857143 53.0775021,132.484245 52.4504154,131.749708 C51.819194,131.011464 51.5,129.959223 51.5,128.621679 C51.5,127.241985 51.8196075,126.162147 52.4511045,125.41086 C53.0781912,124.664516 53.9595582,124.285714 55.0715001,124.285714 C56.1495379,124.285714 57.0080265,124.647491 57.6231228,125.361571 C58.2412512,126.079357 58.5547945,127.150546 58.5547945,128.546303 C58.5547945,129.959223 58.2597192,131.044553 57.6781135,131.770577 C57.1005046,132.49111 56.2323685,132.857143 55.0964457,132.857143 M55.5878993,121.428571 C53.4372153,121.428571 51.7292989,122.054167 50.512307,123.288008 C49.2954527,124.521985 48.6780822,126.229634 48.6780822,128.363956 C48.6780822,130.391985 49.2807305,132.021759 50.4686907,133.209694 C51.6566509,134.39804 53.2732069,135 55.2733664,135 C57.3573188,135 59.0315254,134.36566 60.2486549,133.114742 C61.4653716,131.865189 62.0821918,130.173662 62.0821918,128.089208 C62.0821918,126.030302 61.5034843,124.387549 60.361617,123.207537 C59.2191995,122.026979 57.6129628,121.428571 55.5878993,121.428571 M44.0571815,123.970249 L44.0571815,121.659991 L40.9178082,121.659991 L40.9178082,135 L44.0571815,135 L44.0571815,128.176068 C44.0571815,127.01573 44.3203921,126.06246 44.8397716,125.34244 C45.3525321,124.631007 46.0358373,124.270504 46.8701119,124.270504 C47.1528977,124.270504 47.4703276,124.317098 47.8140926,124.4093 C48.1543369,124.500939 48.4007887,124.600461 48.5461249,124.705191 L48.6780822,124.800771 L48.6780822,121.637187 L48.6272427,121.615368 C48.3348805,121.491212 47.921264,121.428571 47.3979412,121.428571 C46.6090138,121.428571 45.903035,121.681951 45.2983128,122.180827 C44.767526,122.619314 44.3839062,123.220528 44.0905582,123.970249 L44.0571815,123.970249 Z M35.5105141,121.428571 C34.0520473,121.428571 32.7511639,121.728176 31.6446571,122.318779 C30.5358686,122.910748 29.678358,123.755871 29.0949427,124.830514 C28.5140944,125.902561 28.2191781,127.154808 28.2191781,128.551324 C28.2191781,129.774608 28.50511,130.897204 29.0702713,131.886596 C29.6357178,132.877628 30.436042,133.65294 31.4491396,134.190671 C32.460811,134.727719 33.6300659,135 34.9246745,135 C36.4354791,135 37.7253815,134.710642 38.7595853,134.139985 L38.8013699,134.117033 L38.8013699,131.32687 L38.6677448,131.420317 C38.1992728,131.747245 37.6757535,132.008187 37.1124461,132.196174 C36.5505649,132.384025 36.0383117,132.478975 35.589092,132.478975 C34.3416871,132.478975 33.3402835,132.10505 32.6134031,131.367855 C31.884954,130.629704 31.5155956,129.593178 31.5155956,128.28888 C31.5155956,126.976384 31.9007837,125.913217 32.6598938,125.128752 C33.4167222,124.34661 34.4199797,123.94987 35.6415722,123.94987 C36.6864717,123.94987 37.7047032,124.288821 38.66803,124.958252 L38.8013699,125.051016 L38.8013699,122.111118 L38.7583018,122.087893 C38.3957886,121.893485 37.9013616,121.732958 37.2875705,121.611231 C36.6763464,121.489777 36.0785276,121.428571 35.5105141,121.428571 M26.1027397,121.428571 L23.2808219,121.428571 L23.2808219,135 L26.1027397,135 L26.1027397,121.428571 Z M24.3329117,115.714286 C23.8544283,115.714286 23.4371083,115.88743 23.0942538,116.23053 C22.7499648,116.5746 22.5753425,117.007807 22.5753425,117.519061 C22.5753425,118.022274 22.7478782,118.44758 23.0889069,118.782501 C23.4277186,119.116452 23.8463427,119.285714 24.3330421,119.285714 C24.8196112,119.285714 25.2398002,119.116452 25.5826547,118.783055 C25.9277262,118.44758 26.1027397,118.022413 26.1027397,117.519061 C26.1027397,117.02569 25.932421,116.596919 25.5968696,116.244393 C25.2615791,115.892559 24.8361735,115.714286 24.3329117,115.714286 M16.6134035,120.708949 L16.6134035,135 L19.7534247,135 L19.7534247,116.428571 L15.4074973,116.428571 L9.88354446,130.222881 L4.5228727,116.428571 L0,116.428571 L0,135 L2.95079177,135 L2.95079177,120.707545 L3.05210059,120.707545 L8.71283415,135 L10.9396958,135 L16.5120947,120.708949 L16.6134035,120.708949 L16.6134035,120.708949 Z" id="Shape"></path>
                <g id="Group-2">
                    <polygon id="Path" points="48.3253425 48.5208333 0.352739726 48.5208333 0.352739726 0.354166667 48.3253425 0.354166667"></polygon>
                    <polygon id="Path" points="102.64726 48.5208333 54.6746575 48.5208333 54.6746575 0.354166667 102.64726 0.354166667"></polygon>
                    <polygon id="Path" points="48.3253425 101.645833 0.352739726 101.645833 0.352739726 53.4791667 48.3253425 53.4791667"></polygon>
                    <polygon id="Path" points="102.64726 101.645833 54.6746575 101.645833 54.6746575 53.4791667 102.64726 53.4791667"></polygon>
                </g>
            </g>
        </g>
    </g>
</svg>

<svg width="103" height="135" xmlns="http://www.w3.org/2000/svg"><g fill="#F4F4F4" fill-rule="nonzero"><path d="M103 124.061v-2.521h-3.139v-3.92l-.105.033-2.948.9-.058.017v2.97h-4.653v-1.654c0-.77.172-1.36.513-1.754.338-.388.821-.586 1.438-.586.443 0 .902.105 1.364.31l.115.052v-2.656l-.054-.02c-.431-.154-1.017-.232-1.743-.232-.916 0-1.748.199-2.473.593a4.222 4.222 0 00-1.697 1.673c-.398.715-.6 1.54-.6 2.455v1.819h-2.186v2.521h2.185v10.622h3.138v-10.622h4.653v6.75c0 2.78 1.314 4.189 3.906 4.189.426 0 .875-.05 1.332-.147.466-.1.784-.2.97-.307l.042-.025v-2.544l-.128.084a2.2 2.2 0 01-.63.274c-.25.07-.459.106-.62.106-.608 0-1.057-.164-1.336-.486-.281-.325-.425-.893-.425-1.689v-6.205H103zm-22.506 8.796c-1.129 0-2.019-.373-2.646-1.107-.631-.739-.95-1.791-.95-3.128 0-1.38.319-2.46.95-3.211.628-.746 1.51-1.125 2.62-1.125 1.08 0 1.938.361 2.552 1.076.618.717.932 1.789.932 3.184 0 1.413-.295 2.499-.876 3.225-.578.72-1.447 1.086-2.582 1.086m-.215-11.428c-2.15 0-3.858.625-5.075 1.859s-1.834 2.942-1.834 5.076c0 2.027.602 3.658 1.79 4.846 1.188 1.188 2.805 1.79 4.805 1.79 2.084 0 3.758-.634 4.975-1.885 1.217-1.25 1.834-2.941 1.834-5.026 0-2.059-.579-3.701-1.72-4.881-1.142-1.181-2.749-1.78-4.775-1.78m-11.901 0c-1.43 0-2.612.372-3.515 1.104-.909.737-1.37 1.704-1.37 2.873 0 .608.1 1.148.296 1.605.197.46.501.864.906 1.204.402.337 1.023.69 1.845 1.048.69.29 1.206.534 1.534.726.32.19.547.379.675.564.125.18.188.428.188.734 0 .87-.641 1.293-1.96 1.293-.49 0-1.048-.104-1.66-.309a6.195 6.195 0 01-1.698-.875l-.126-.092v2.969l.046.021c.43.202.971.372 1.609.505a8.497 8.497 0 001.718.202c1.55 0 2.8-.373 3.711-1.11.917-.742 1.382-1.731 1.382-2.94 0-.873-.25-1.622-.743-2.225-.49-.599-1.34-1.149-2.526-1.634-.945-.386-1.55-.706-1.8-.951-.24-.237-.363-.573-.363-.997 0-.377.151-.679.461-.923.312-.245.746-.37 1.291-.37.506 0 1.023.081 1.537.24.514.159.966.372 1.343.633l.124.086v-2.816l-.048-.02c-.348-.152-.806-.282-1.363-.387a8.194 8.194 0 00-1.494-.157m-13.282 11.428c-1.128 0-2.018-.373-2.646-1.107-.63-.739-.95-1.79-.95-3.128 0-1.38.32-2.46.951-3.211.627-.746 1.509-1.125 2.62-1.125 1.079 0 1.937.361 2.552 1.076.618.717.932 1.789.932 3.184 0 1.413-.295 2.499-.877 3.225-.577.72-1.446 1.086-2.582 1.086m.492-11.428c-2.15 0-3.859.625-5.076 1.859-1.217 1.234-1.834 2.942-1.834 5.076 0 2.028.603 3.658 1.79 4.846 1.189 1.188 2.805 1.79 4.805 1.79 2.084 0 3.759-.634 4.976-1.885 1.216-1.25 1.833-2.941 1.833-5.026 0-2.059-.579-3.701-1.72-4.881-1.143-1.181-2.749-1.78-4.774-1.78m-11.53 2.542v-2.31h-3.14V135h3.14v-6.824c0-1.16.262-2.114.782-2.834.513-.711 1.196-1.071 2.03-1.071.283 0 .6.046.944.138.34.092.587.191.732.296l.132.096v-3.164l-.05-.022c-.293-.124-.707-.186-1.23-.186-.789 0-1.495.253-2.1.752-.53.438-.914 1.04-1.207 1.79h-.034zm-8.547-2.541c-1.459 0-2.76.3-3.866.89a6.126 6.126 0 00-2.55 2.512c-.58 1.072-.876 2.324-.876 3.72 0 1.224.286 2.346.851 3.336a5.858 5.858 0 002.38 2.304c1.01.537 2.18.809 3.475.809 1.51 0 2.8-.29 3.835-.86l.041-.023v-2.79l-.133.093a6.073 6.073 0 01-1.556.776c-.561.188-1.074.283-1.523.283-1.247 0-2.249-.374-2.976-1.111-.728-.738-1.097-1.775-1.097-3.08 0-1.312.385-2.375 1.144-3.16.757-.781 1.76-1.178 2.982-1.178 1.044 0 2.063.339 3.026 1.008l.133.093v-2.94l-.043-.023c-.362-.195-.857-.355-1.47-.477a9.156 9.156 0 00-1.777-.182m-9.408 0H23.28V135h2.822v-13.571zm-1.77-5.715c-.479 0-.896.173-1.239.517a1.756 1.756 0 00-.519 1.288c0 .503.173.929.514 1.264.339.333.757.503 1.244.503s.907-.17 1.25-.503c.345-.335.52-.76.52-1.264 0-.493-.17-.922-.506-1.275a1.68 1.68 0 00-1.264-.53m-7.72 4.995V135h3.14v-18.571h-4.346l-5.523 13.794-5.361-13.794H0V135h2.95v-14.292h.102L8.712 135h2.228l5.572-14.291h.101zM48.325 48.52H.353V.355h47.972zM102.647 48.52H54.675V.355h47.972zM48.325 101.646H.353V53.479h47.972zM102.647 101.646H54.675V53.479h47.972z"/></g></svg>
